icons/svg/archive-add-2.svg

<svg width="24" height="24" viewBox="0 0 24 24" fill="none" xmlns="http://www.w3.org/2000/svg">
<path d="M10.25 12.25H12.25M3.75 8.25H20.25M20.25 10.25V8.55C20.25 6.86984 20.25 6.02976 19.923 5.38803C19.6354 4.82354 19.1765 4.3646 18.612 4.07698C17.9702 3.75 17.1302 3.75 15.45 3.75H8.55C6.86984 3.75 6.02976 3.75 5.38803 4.07698C4.82354 4.3646 4.3646 4.82354 4.07698 5.38803C3.75 6.02976 3.75 6.86984 3.75 8.55V15.45C3.75 17.1302 3.75 17.9702 4.07698 18.612C4.3646 19.1765 4.82354 19.6354 5.38803 19.923C6.02976 20.25 6.86984 20.25 8.55 20.25H10.25" stroke="currentColor" stroke-width="1.5" stroke-linecap="round" stroke-linejoin="round"/>
<path fill-rule="evenodd" clip-rule="evenodd" d="M17.5 23C20.5376 23 23 20.5376 23 17.5C23 14.4624 20.5376 12 17.5 12C14.4624 12 12 14.4624 12 17.5C12 20.5376 14.4624 23 17.5 23ZM17.5 14.0066C17.7761 14.0066 18 14.2304 18 14.5066V17.0001H20.4934C20.7696 17.0001 20.9934 17.2239 20.9934 17.5001C20.9934 17.7762 20.7696 18.0001 20.4934 18.0001H18V20.4934C18 20.7696 17.7761 20.9934 17.5 20.9934C17.2239 20.9934 17 20.7696 17 20.4934V18.0001H14.5066C14.2304 18.0001 14.0066 17.7762 14.0066 17.5001C14.0066 17.2239 14.2304 17.0001 14.5066 17.0001H17V14.5066C17 14.2304 17.2239 14.0066 17.5 14.0066Z" fill="currentColor"/>
</svg>

<svg xmlns="http://www.w3.org/2000/svg" width="24" height="24" fill="none" viewBox="0 0 24 24"><path stroke="currentColor" stroke-linecap="round" stroke-linejoin="round" stroke-width="1.5" d="M10.25 12.25h2m-8.5-4h16.5m0 2v-1.7c0-1.68 0-2.52-.327-3.162a3 3 0 0 0-1.311-1.311c-.642-.327-1.482-.327-3.162-.327h-6.9c-1.68 0-2.52 0-3.162.327a3 3 0 0 0-1.311 1.311C3.75 6.03 3.75 6.87 3.75 8.55v6.9c0 1.68 0 2.52.327 3.162a3 3 0 0 0 1.311 1.311c.642.327 1.482.327 3.162.327h1.7"/><path fill="currentColor" fill-rule="evenodd" d="M17.5 23a5.5 5.5 0 1 0 0-11 5.5 5.5 0 0 0 0 11m0-8.993a.5.5 0 0 1 .5.5V17h2.493a.5.5 0 1 1 0 1H18v2.493a.5.5 0 1 1-1 0V18h-2.493a.5.5 0 1 1 0-1H17v-2.493a.5.5 0 0 1 .5-.5" clip-rule="evenodd"/></svg>
